!!!COM:	la Rue, Pierre de
!!!CDT:	~1452///-1518/11/20
!!!OPR:	Missa de septem doloribus
!!!ONM:	1
!!!OTL:	Kyrie
!!!AGN:	Mass; Kyrie
!!!SCT:	Rue1014a
!!!SCA:	Rue1014a
!!!voices-OPR:	5
!!!voices:	5
**kern	**kern	**kern	**kern	**kern
*staff5	*staff4	*staff3	*staff2	*staff1
*Ivox	*Ivox	*Ivox	*Ivox	*Ivox
*I"Bassus	*I"Tenor	*I"Tenor	*I"Contra	*I"Discantus
*I'B	*I'T	*I'T	*I'C	*I'D
*>[A,B,C]	*>[A,B,C]	*>[A,B,C]	*>[A,B,C]	*>[A,B,C]
*>A	*>A	*>A	*>A	*>A
*clefF4	*clefGv2	*clefGv2	*clefGv2	*clefG2
*k[]	*k[]	*k[]	*k[]	*k[]
*M2/1	*M2/1	*M2/1	*M2/1	*M2/1
*met(C)	*met(C)	*met(C)	*met(C)	*met(C)
!!section: Kyrie I
!!!OMD: Kyrie I
=1-	=1-	=1-	=1-	=1-
0D	0r	0r	0r	0r
=2	=2	=2	=2	=2
0F	0A	0r	0r	0r
=3	=3	=3	=3	=3
1E	0c	0r	0r	0r
1C	.	.	.	.
=4	=4	=4	=4	=4
1D	1B	0r	0r	0r
1BB	1G	.	.	.
=5	=5	=5	=5	=5
2AA/	2A/	0r	0r	0r
1D	2F/	.	.	.
.	1E	.	.	.
2C#i/	.	.	.	.
=6	=6	=6	=6	=6
[0D	1D	0r	0d	0r
.	2r	.	.	.
.	2A/	.	.	.
=7	=7	=7	=7	=7
0D]	1A	0r	0f	0a
.	1F	.	.	.
=8	=8	=8	=8	=8
2.C/	1G	0r	1e	0cc
4BB/	.	.	.	.
1AA	1A	.	1c	.
=9	=9	=9	=9	=9
0GG	2D/	0r	1d	1b
.	1G	.	.	.
.	.	.	1B	1g
.	2G/	.	.	.
=10	=10	=10	=10	=10
0r	2F/	0r	2A/	1a
.	2.D/	.	1d	.
.	.	.	.	1f
.	4E/	.	.	.
.	4F/	.	4c\	.
.	4G/	.	4B\	.
=11	=11	=11	=11	=11
0r	2A/	0r	2c\	2.e/
.	2B\	.	1d	.
.	.	.	.	4d/
.	[1A	.	.	1e
.	.	.	2c#i\	.
=12	=12	=12	=12	=12
2r	1A]	0D	0d	0d
2D\	.	.	.	.
2D\	2r	.	.	.
[2F\	2A/	.	.	.
=13	=13	=13	=13	=13
4F\]	1A	0F	2r	2r
4E\	.	.	.	.
4D\	.	.	2d\	2a/
4C/	.	.	.	.
1D	1F	.	1d	1a
=14	=14	=14	=14	=14
2.C/	2G/	1E	2e\	0cc
.	1E	.	2.c\	.
4BB/	.	.	.	.
1AA	.	1C	.	.
.	.	.	4B\	.
.	2F/	.	2A/	.
=15	=15	=15	=15	=15
1GG	1G	0D	2B\	2b\
.	.	.	1d	2g/
1r	2F/	.	.	2a/
.	[2A/	.	2A/	2f/
=16	=16	=16	=16	=16
0r	4A/]	1A	2c\	2e/
.	4G/	.	.	.
.	2F/	.	2d\	2.a/
.	1E	1B	1e	.
.	.	.	.	4g#i/
.	.	.	.	2g#i/
=17	=17	=17	=17	=17
2r	0F	1A	2c\	0a
2D\	.	.	2.f\	.
1D	.	2r	.	.
.	.	.	4e\	.
.	.	2A/	4d\	.
.	.	.	4c\	.
=18	=18	=18	=18	=18
1F	1D	1A	1d	2r
.	.	.	.	2f/
2E\	1C	1c	1e	2g/
2C/	.	.	.	2e/
=19	=19	=19	=19	=19
2D\	1r	2B\	1r	1d
2BB/	.	2G/	.	.
[1AA	2r	2A/	2r	1c
.	[2C/	2F/	2e\	.
=20	=20	=20	=20	=20
1AA]	2C/]	1E	2f\	2r
.	2C/	.	2e\	2c/
2r	2F/	1r	4f\	2d/
.	.	.	4e\	.
2AA/	2E/	.	4d\	2c/
.	.	.	4c\	.
=21	=21	=21	=21	=21
1BB-	1D	2r	1d	2f/
.	.	2G/	.	4e/
.	.	.	.	4d/
1AA	2r	2A/	[1e	1c
.	[2A/	2F/	.	.
=22	=22	=22	=22	=22
2r	2A/]	1E	1e]	2r
2E\	2G/	.	.	2g/
2F\	2.c\	2r	1r	2a/
2E\	.	2G/	.	2b\
.	4B\	.	.	.
=23	=23	=23	=23	=23
2AA/	2A/	2A/	0r	2.cc\
1E	4G/	2B\	.	.
.	4F/	.	.	4b\
.	1E	2.c\	.	2g/
2AA/	.	.	.	[2a/
.	.	4A/	.	.
=24	=24	=24	=24	=24
1E	2r	1B	1e	2a/]
.	2E/	.	.	2g#i/
2r	2.F/	[1A	[1c	[1a
[2A\	.	.	.	.
.	4G/	.	.	.
=25	=25	=25	=25	=25
4A\]	4A/	1A]	1c]	0a_
4G\	4B\	.	.	.
4F\	2c\	.	.	.
4E\	.	.	.	.
2D\	2F/	2r	2d\	.
2AA/	2E/	2C/	2e\	.
=26	=26	=26	=26	=26
4D\	2D/	2.D/	2.f\	1a]
4E\	.	.	.	.
4F\	2A/	.	.	.
4G\	.	4E/	4e\	.
1A	2.F/	2F/	2c\	[1a
.	.	2D/	[2d\	.
.	4G/	.	.	.
=27	=27	=27	=27	=27
1AA	1A	1E	2d\]	1a]
.	.	.	2c#i\	.
1Dl	1Al	1Dl	1dl	1fl
!!LO:LB:i:g=z
=28||	=28||	=28||	=28||	=28||
*>B	*>B	*>B	*>B	*>B
*clefF4	*clefGv2	*clefGv2	*clefGv2	*clefG2
*k[]	*k[]	*k[]	*k[]	*k[]
*M2/1	*M2/1	*M2/1	*M2/1	*M2/1
*met(C2)	*met(C2)	*met(C2)	*met(C2)	*met(C2)
!!section: Christe
!!!OMD: Christe
[0AA	0r	[0A	1c	1r
.	.	.	[1c	[1e
=29.	=29.	=29.	=29.	=29.
0AA]	0r	0A]	2c\]	2e/]
.	.	.	2A/	2c/
.	.	.	2c\	2e/
.	.	.	2d\	2f/
=30	=30	=30	=30	=30
0AA	0r	0A	2c\	2e/
.	.	.	2.e\	2.c/
.	.	.	4d\	4d/
.	.	.	2c\	4e/
.	.	.	.	4f/
=31.	=31.	=31.	=31.	=31.
[0E	[0G	1B	2B\	[0g
.	.	.	2E/	.
.	.	[1B	1e	.
=32	=32	=32	=32	=32
0E]	0G]	2B\]	[0e	0g_
.	.	2G/	.	.
.	.	2B\	.	.
.	.	2c\	.	.
=33.	=33.	=33.	=33.	=33.
0E	0G	2B\	0e]	0g]
.	.	2.G/	.	.
.	.	4A/	.	.
.	.	4B\	.	.
.	.	4c\	.	.
=34	=34	=34	=34	=34
[0D	1F	1d	1A	1r
.	[1F	1d	2A/	[1a
.	.	.	[2d\	.
=35.	=35.	=35.	=35.	=35.
0D]	2F/]	[0d	2d\]	2a/]
.	2D/	.	4c\	2f/
.	.	.	4B\	.
.	2F/	.	2A/	2a/
.	2G/	.	[2D/	2b-i\
=36	=36	=36	=36	=36
1r	2F/	0d]	4D/]	2a/
.	.	.	4E/	.
.	2.D/	.	4F/	2.f/
.	.	.	4G/	.
1D	.	.	2A/	.
.	4E/	.	.	4g/
.	4F/	.	2D/	4a/
.	4G/	.	.	4b\
=37.	=37.	=37.	=37.	=37.
1AA	1.A	[0c	0E	0cc
2.C/	.	.	.	.
.	4G/	.	.	.
4D\	4F/	.	.	.
=38	=38	=38	=38	=38
2E\	2G/	0c]	1r	1cc
2F\	2A/	.	.	.
2E\	2G/	.	[1e	[1cc
[2C/	[2E/	.	.	.
=39.	=39.	=39.	=39.	=39.
4C/]	4E/]	0r	1e]	1cc]
4D\	4F/	.	.	.
4E\	4G/	.	.	.
4F\	4A/	.	.	.
1G	1B	.	1d	[1b
=40	=40	=40	=40	=40
1.E	1r	0G	1e	2b\]
.	.	.	.	1.g
.	[1G	.	2r	.
[2C/	.	.	[2e\	.
=41.	=41.	=41.	=41.	=41.
1C]	2G/]	1G	1e]	1.e
.	1.E	.	.	.
[1AA	.	[1A	[1c	.
.	.	.	.	[2a/
=42	=42	=42	=42	=42
2AA/]	1C	1A]	2c\]	1a]
1.C	.	.	1.e	.
.	2C/	1E	.	[1g
.	[2E/	.	.	.
=43.	=43.	=43.	=43.	=43.
2E\	2E/]	2G/	2c\	2g/]
2F\	2D/	2A/	1d	1f
1D	[1A	2.F/	.	.
.	.	.	4c\	4e/
.	.	4E/	4B\	4d/
=44	=44	=44	=44	=44
[0AA	1A]	1C	2c\	2e/
.	.	.	2.A/	2f/
.	[1A	2E/	.	2e/
.	.	.	4B\	.
.	.	2F/	4c\	[2A/
.	.	.	4d\	.
=45.	=45.	=45.	=45.	=45.
0AA]	1A]	2E/	1e	4A/]
.	.	.	.	4B/
.	.	1A	.	4c/
.	.	.	.	4d/
.	1E	.	1c	2e/
.	.	2A/	.	2f/
=46	=46	=46	=46	=46
1E	0r	1.G	0B	2.g/
.	.	.	.	4a/
2E\	.	.	.	4b\
.	.	.	.	4cc\
[2G\	.	[2d\	.	[2b\
=47.	=47.	=47.	=47.	=47.
4G\]	1r	1d]	1r	2b\]
4F\	.	.	.	.
2D\	.	.	.	2.a/
1E	1G	1B	2r	.
.	.	.	.	4g#i/
.	.	.	[2e\	2g#i/
=48	=48	=48	=48	=48
0AA	2F/	[0A	2e\]	0a
.	4E/	.	2.d\	.
.	4D/	.	.	.
.	1E	.	.	.
.	.	.	4c#i\	.
.	.	.	2c#i\	.
=49.	=49.	=49.	=49.	=49.
1r	1D	0A]	0d	0r
[1D	2D/	.	.	.
.	[2F/	.	.	.
=50	=50	=50	=50	=50
2D\]	2F/]	0r	1r	0r
4C/	4E/	.	.	.
4BB/	4D/	.	.	.
2AA/	2E/	.	2r	.
2D\	2F/	.	2d\	.
=51.	=51.	=51.	=51.	=51.
2.GG/	[0G	0r	2.B\	0r
4AA/	.	.	4c\	.
2BB/	.	.	2d\	.
[2C/	.	.	[2e\	.
=52	=52	=52	=52	=52
2C/]	0G]	0r	2e\]	0r
2BB/	.	.	2d\	.
2C/	.	.	2e\	.
[2GG/	.	.	[2d\	.
=53.	=53.	=53.	=53.	=53.
4GG/]	0r	0r	2d\]	0r
4AA/	.	.	.	.
4BB/	.	.	4c\	.
4C/	.	.	4B\	.
2D\	.	.	4A/	.
.	.	.	4B\	.
[2AA/	.	.	4c\	.
.	.	.	4d\	.
=54	=54	=54	=54	=54
2AA/]	0r	0A	2e\	1r
1D	.	.	1f	.
.	.	.	.	[1a
2C/	.	.	2e\	.
=55.	=55.	=55.	=55.	=55.
2D\	0r	0A	2f\	1a]
4C/	.	.	4e\	.
4BB/	.	.	4d\	.
1AA	.	.	1c	1a
=56	=56	=56	=56	=56
[0GG	1G	0D	[0d	2b\
.	.	.	.	1dd
.	[1G	.	.	.
.	.	.	.	[2g/
=57.	=57.	=57.	=57.	=57.
0GG]	1G]	1D	0d]	2g/]
.	.	.	.	4f/
.	.	.	.	4e/
.	2.G/	1D	.	2d/
.	.	.	.	[2g/
.	4A/	.	.	.
=58	=58	=58	=58	=58
0r	4B\	1G	0r	4g/]
.	4c\	.	.	4a/
.	2d\	.	.	4b\
.	.	.	.	4cc\
.	2B\	2G/	.	2dd\
.	2c\	[2A/	.	[2cc\
=59.	=59.	=59.	=59.	=59.
0r	1d	2A/]	0r	2cc\]
.	.	2G/	.	2b\
.	2c\	2A/	.	2cc\
.	[2c\	2F/	.	[2a/
=60	=60	=60	=60	=60
0r	4c\]	1E	0r	4a/]
.	4B\	.	.	4g/
.	4A/	.	.	1g
.	4G/	.	.	.
.	1A	1D	.	.
.	.	.	.	2f#i/
=61.	=61.	=61.	=61.	=61.
0GG	2.G/	1r	0d	[0g
.	4A/	.	.	.
.	4B\	[1G	.	.
.	4c\	.	.	.
.	[2d\	.	.	.
=62	=62	=62	=62	=62
0GG	2d\]	1G]	1d	0g]
.	2.c\	.	.	.
.	.	1G	1d	.
.	4B\	.	.	.
.	2B\	.	.	.
=63.	=63.	=63.	=63.	=63.
2.C/	2c\	[0E	2e\	0r
.	1A	.	1c	.
4D\	.	.	.	.
1E	.	.	.	.
.	2G/	.	2B\	.
=64	=64	=64	=64	=64
1AA	1A	0E]	2c\	0r
.	.	.	2A/	.
2AA/	2A/	.	2.c\	.
[2AA/	[2c\	.	.	.
.	.	.	4d\	.
=65.	=65.	=65.	=65.	=65.
4AA/]	2c\]	[0E	[0e	0r
4BB/	.	.	.	.
4C/	4B\	.	.	.
4D\	4A/	.	.	.
4E\	2G/	.	.	.
4C/	.	.	.	.
4E\	2c\	.	.	.
4F\	.	.	.	.
=66	=66	=66	=66	=66
2G\	2B\	0E]	0e]	0r
1A	2A/	.	.	.
.	1B	.	.	.
2G#i\	.	.	.	.
=67.	=67.	=67.	=67.	=67.
0A	2A/	1F	2r	0r
.	1c	.	2.A/	.
.	.	1F	.	.
.	.	.	4B\	.
.	4B\	.	4c\	.
.	4A/	.	4d\	.
=68	=68	=68	=68	=68
2r	2G/	0E	0e	0r
2.AA/	2A/	.	.	.
.	1E	.	.	.
4BB/	.	.	.	.
4C/	.	.	.	.
4D\	.	.	.	.
=69.	=69.	=69.	=69.	=69.
1E	0r	0G	1e	2r
.	.	.	.	2.e/
1C	.	.	1e	.
.	.	.	.	4f/
.	.	.	.	4g/
.	.	.	.	4a/
=70	=70	=70	=70	=70
2BB/	1r	0G	2d\	2b\
2AA/	.	.	2c\	2cc\
1BB	1D	.	1B	1dd
=71.	=71.	=71.	=71.	=71.
1AA	1E	0A	[0c	1cc
[1FF	2.F/	.	.	[1a
.	4G/	.	.	.
=72	=72	=72	=72	=72
1FF]	2A/	1F	0c]	1a]
.	2F/	.	.	.
1C	1G	1E	.	1g
=73.	=73.	=73.	=73.	=73.
1D	2r	1F	1r	1f
.	2D/	.	.	.
1AA	1E	[1A	1c	1e
=74	=74	=74	=74	=74
0D	[0D	1A]	1.d	1.f
.	.	1F	.	.
.	.	.	2B\	2d/
=75.	=75.	=75.	=75.	=75.
[0GG	0D]	1G	[0B	1.d
.	.	1D	.	.
.	.	.	.	[2g/
=76	=76	=76	=76	=76
0GG]	0D	1.G	0B]	2g/]
.	.	.	.	4f/
.	.	.	.	4e/
.	.	.	.	[1d
.	.	2F/	.	.
=77.	=77.	=77.	=77.	=77.
2.D\	1.F	0D	1A	1d]
4C/	.	.	.	.
1BB	.	.	1B	1d
.	2G/	.	.	.
=78	=78	=78	=78	=78
[0AAl	2A/	1.C	1c	1e
.	2B\	.	.	.
.	[1c	.	[1e	[1a
.	.	2D/	.	.
=79.	=79.	=79.	=79.	=79.
0AA_	1c]	[0El	1e]	1a]
.	1A	.	1c	1e
=80	=80	=80	=80	=80
0AA]	0Al	0E]	0cl	0el
!!LO:LB:i:g=z
=81||	=81||	=81||	=81||	=81||
*>C	*>C	*>C	*>C	*>C
*clefF4	*clefGv2	*clefGv2	*clefGv2	*clefG2
*k[]	*k[]	*k[]	*k[]	*k[]
*M2/1	*M2/1	*M2/1	*M2/1	*M2/1
*met(C)	*met(C)	*met(C)	*met(C)	*met(C)
!!section: Kyrie II
!!!OMD: Kyrie II
0r	0r	0r	1A	1a
.	.	.	[1d	2b-i\
.	.	.	.	[2a/
=82	=82	=82	=82	=82
0r	0r	0r	1d]	2a/]
.	.	.	.	2f/
.	.	.	2B\	2g/
.	.	.	2c\	2a/
=83	=83	=83	=83	=83
0r	0r	0r	2.d\	2b-i\
.	.	.	.	2.a/
.	.	.	4e\	.
.	.	.	2f\	.
.	.	.	.	4f/
.	.	.	[2e\	[2g/
=84	=84	=84	=84	=84
1r	1r	0r	4e\]	4g/]
.	.	.	4d\	4f/
.	.	.	1d	4e/
.	.	.	.	4d/
1AA	1A	.	.	1e
.	.	.	2c#i\	.
=85	=85	=85	=85	=85
0D	2B-i\	0r	0d	1d
.	1A	.	.	.
.	.	.	.	1r
.	2F/	.	.	.
=86	=86	=86	=86	=86
2BB/	2G/	0r	0r	0r
2C/	2A/	.	.	.
2.D\	2B-i\	.	.	.
.	[2A/	.	.	.
4E\	.	.	.	.
=87	=87	=87	=87	=87
2F\	2A/]	0r	0r	0r
2G\	1d	.	.	.
1E	.	.	.	.
.	2c#i\	.	.	.
=88	=88	=88	=88	=88
[0D	1.d	0r	0r	1a
.	.	.	.	2b-i\
.	4c\	.	.	[2a/
.	4B\	.	.	.
=89	=89	=89	=89	=89
1D]	1A	0r	1d	2a/]
.	.	.	.	2f/
1r	1r	.	2B\	2g/
.	.	.	2c\	2a/
=90	=90	=90	=90	=90
0r	0r	0r	2d\	2b\
.	.	.	1e	1cc
.	.	.	4d\	4b\
.	.	.	4c\	4a/
=91	=91	=91	=91	=91
0r	1r	0r	4d\	2b\
.	.	.	4c\	.
.	.	.	4B\	1a
.	.	.	4A/	.
.	1E	.	1B	.
.	.	.	.	2g#i/
=92	=92	=92	=92	=92
0AA	2F/	0A	1A	0a
.	1E	.	.	.
.	.	.	1r	.
.	2C/	.	.	.
=93	=93	=93	=93	=93
1GG	2D/	1B-i	0r	0r
.	2E/	.	.	.
2.AA/	2F/	1A	.	.
.	[2E/	.	.	.
4BB/	.	.	.	.
=94	=94	=94	=94	=94
2C/	4E/]	2G/	0r	1r
.	4D/	.	.	.
2D\	1D	2F/	.	.
1AA	.	1E	.	1a
.	2C#i/	.	.	.
=95	=95	=95	=95	=95
0r	1D	0D	1d	2b-i\
.	.	.	.	1a
.	1r	.	2A/	.
.	.	.	2d\	2f/
=96	=96	=96	=96	=96
0r	0r	0r	2e\	2g/
.	.	.	2f\	2a/
.	.	.	1d	4b-i\
.	.	.	.	4a/
.	.	.	.	4g/
.	.	.	.	4f/
=97	=97	=97	=97	=97
0AA	0E	0A	1.c	0e
.	.	.	4d\	.
.	.	.	4c\	.
=98	=98	=98	=98	=98
1D	1F	2B-i\	1d	2.d/
.	.	1A	.	.
.	.	.	.	4e/
2D\	2D/	.	1r	2f/
[2C/	2E/	2A/	.	[2e/
=99	=99	=99	=99	=99
2C/]	4C/	2G/	0r	2e/]
.	4D/	.	.	.
2AA/	4E/	1A	.	4d/
.	4F/	.	.	4c/
1BB	1D	.	.	1d
.	.	2G/	.	.
=100	=100	=100	=100	=100
0AA	1E	2A/	0e	0c
.	.	4G/	.	.
.	.	4F/	.	.
.	[1A	[1E	.	.
=101	=101	=101	=101	=101
1AA	1A]	1E]	2.c\	2r
.	.	.	.	2.a/
.	.	.	4d\	.
1C	2.E/	1E	2e\	.
.	.	.	.	4b\
.	.	.	2c\	2cc\
.	4F/	.	.	.
=102	=102	=102	=102	=102
1GG	1G	1D	2d\	2b\
.	.	.	2B\	2g/
[1D	2F/	2r	1A	2a/
.	2D/	[2A/	.	[2f/
=103	=103	=103	=103	=103
2D\]	1F	4A/]	2r	4f/]
.	.	4B\	.	4g/
2AA/	.	2c\	2A/	2a/
2BB/	1G	2B\	2d\	2g/
2C/	.	2G/	[2c\	2e/
=104	=104	=104	=104	=104
2FF/	0F	2A/	2c\]	2f/
2.BB-/	.	2.F/	2.d\	2.d/
4AA/	.	4G/	4c\	4e/
2FF/	.	2A/	2A/	2f/
=105	=105	=105	=105	=105
2GG/	0r	2G/	2B\	2e/
2AA/	.	2.E/	2c\	2c/
1BB-i	.	.	2F/	1d
.	.	4D/	.	.
.	.	2D/	2G/	.
=106	=106	=106	=106	=106
0AA	2.C/	2E/	0A	2r
.	.	2F/	.	2.a/
.	4D/	.	.	.
.	2E/	2E/	.	.
.	.	.	.	4b\
.	2F/	2C/	.	2cc\
=107	=107	=107	=107	=107
2GG/	1G	2D/	2r	2b\
2BB/	.	1G	2d\	2g/
1AA	1C	.	2c\	1a
.	.	2F#i/	2A/	.
=108	=108	=108	=108	=108
0GG	2D/	0G	1B	2d/
.	2.G/	.	.	2e/
.	.	.	1B	2d/
.	4F/	.	.	.
.	4E/	.	.	[2g/
.	4D/	.	.	.
=109	=109	=109	=109	=109
1C	0C	1G	2c\	4g/]
.	.	.	.	4f/
.	.	.	2.c\	4e/
.	.	.	.	4d/
2AA/	.	2.A/	.	2c/
.	.	.	4B\	.
2FF/	.	.	[2A/	[2f/
.	.	4G/	.	.
=110	=110	=110	=110	=110
1BB-i	1r	2.F/	2A/]	4f/]
.	.	.	.	4e/
.	.	.	2G/	1d
.	.	4D/	.	.
1AA	1E	1E	1A	.
.	.	.	.	2c#i/
=111	=111	=111	=111	=111
1r	0F	[0Dl	[0Al	[0dl
*^	*	*	*	*
1DD\	1D/	.	.	.	.
=112	=112	=112	=112	=112	=112
0DDl\	0Dl/	0Fl	0D]	0A]	0d]
*v	*v	*	*	*	*
==	==	==	==	==
*-	*-	*-	*-	*-
!!!RDF**kern: l=long note in original notation
!!!RDF**kern: i=editorial accidental
!!!ENC:	Chris Gage 05-23-2013
!!!END:	2013/08/03/
!!!EED:	Jesse Rodin
!!!EEV:	2013/12/30/
!!!ONB:	Translated from MusicXML and edited on 2013/12/30/ by Craig Sapp
!!muse2ps: T^@{OPR}^u^@{ONM}{. }@{OTL}^C^@{COM}^i2I150v85,85,85,85,130Q8c110
